X: 644
T: Here and There
C:Tommy Jackson
B: jims roots
M:C|
L:1/8
Q: 1/4=100
K:A
V:1 
|:([A2A] || "A"[A2A]) Ac BABd | cAce a2 ga | "E7"bagb ageg | fgeg fdBG |
"A"A2 Ac BABd | cAce a2 ga | "E7" bagb ageg | fdBG "A"A2 :|
(A,2 || A,)CEA cBAG | "D"FDFA dAFD | "E7"[[EB][FB][GB]B ecBG | "A"ABcB AFEC |
A,CEA cBAG | "D"FDFA dAFD | "E7"[[EB][FB][GB]B ecBG | "A"[A2e][Ae][Ae][A2e] :|
% abcbook-tune_id 6298c25db5f651d051e377f8


% abcbook-boost 0
% abcbook-tablature 
% abcbook-transpose 
% abcbook-lastupdated 1654178398732
% abcbook-soundfonts 
% abcbook-repeats 1


